packages/icons/src/assets/raw/outlined/SVG/outlined-finance-bag.svg

<svg xmlns="http://www.w3.org/2000/svg" viewBox="0 0 24 24">
  <path d="M6 21a1.5 1.5 0 01-1.5-1.54v-.11l.93-12.07a.5.5 0 01.5-.46h12.14a.5.5 0 01.5.46l.93 12.06A1.52 1.52 0 0118.11 21H6zm12-1v.5-.5a.48.48 0 00.35-.18.49.49 0 00.12-.37l-.89-11.6H6.39L5.5 19.42a.51.51 0 00.15.4A.48.48 0 006 20h12z"/>
  <path d="M15 10.08a.5.5 0 01-.5-.5V6a2.54 2.54 0 10-5.04 0v3.58a.5.5 0 01-.5.5.51.51 0 01-.5-.5V6a3.54 3.54 0 117.08 0v3.58a.51.51 0 01-.54.5z"/>
</svg>

<svg xmlns="http://www.w3.org/2000/svg" xmlns:xlink="http://www.w3.org/1999/xlink" viewBox="0 0 24 24">
  <defs>
    <clipPath id="a">
      <rect width="24" height="24"/>
    </clipPath>
  </defs>
  <title>outlined-finance-bag</title>
  <g>
    <g style="opacity: 0">
      <g>
        <rect width="24" height="24"/>
        <g style="clip-path: url(#a)">
          <g>
            <rect width="24" height="24"/>
            <path d="M12,21.5A9.5,9.5,0,1,1,21.5,12,9.51,9.51,0,0,1,12,21.5Zm0-18A8.5,8.5,0,1,0,20.5,12,8.51,8.51,0,0,0,12,3.5Z"/>
          </g>
        </g>
      </g>
    </g>
    <g>
      <path d="M6,21A1.5,1.5,0,0,1,4.5,19.46v-.11L5.43,7.28a.5.5,0,0,1,.5-.46H18.07a.5.5,0,0,1,.5.46l.93,12.06A1.52,1.52,0,0,1,18.11,21H6Zm12-1v.5l0-.5a.48.48,0,0,0,.35-.18.49.49,0,0,0,.12-.37l-.89-11.6H6.39L5.5,19.42a.51.51,0,0,0,.15.4A.48.48,0,0,0,6,20H18Z"/>
      <path d="M15,10.08a.5.5,0,0,1-.5-.5V6A2.54,2.54,0,1,0,9.46,6V9.58a.5.5,0,0,1-.5.5.51.51,0,0,1-.5-.5V6a3.54,3.54,0,1,1,7.08,0V9.58A.51.51,0,0,1,15,10.08Z"/>
    </g>
  </g>
</svg>
